!!!!SEGMENT: pl-kk--kk-i-10--020_anonim--sub-tuum-praesidium.krn
!!!cenid: 16xx:1216
!!!COM: Anonim
!!!COM-rismID: pe30004985
!!!CDT:
!!!CNT:
!!!OTL: Sub tuum praesidium
!!!PDT:
!!!AGN: Sacred
!!!SMS-siglum: PL-Kk
!!!SMS-shelfmark: Kk.I.10
!!!SMS-shelfwork: 020 W
!!!SMS-variant:
!!!SMS-altvar:
!!!NIFC-rismSourceID: 1001154019
!!!NIFC-islandoraID: pl-kk:2434
!!!URL-pdf-islandora: https://repozytorium.nifc.pl/islandora/object/pl-kk%3A2434/datastream/PDF/view
!!!URL-scan: https://polish.musicsources.pl/pl/lokalizacje/galeria/rekopisy/5737 @EN{Scan on Polish Music Herritage in Open Access Website} @PL{Skany w portalu Dziedzictwo Muzyki Polskiej w otwartym dostępie}
!!!ONB-nifc: UWAGA: S (0034), T (0082 prawa strona – 0083), B (0133).
!!!AIN: 1 alto 1 empty 1 tenor
!!!key:
**kern	**text	**kern	**text	**kern	**text
*part3	*part3	*part2	*part2	*part1	*part1
*staff3	*staff3	*staff2	*staff2	*staff1	*staff1
*Iempty	*	*Itenor	*	*Ialto	*
*I"[Baſsus]	*	*I"[Tenor]	*	*I"[Altus]	*
*I'B	*	*I'T	*	*I'A	*
*clefF4	*	*clefC4	*	*clefC1	*
*k[]	*	*k[]	*	*k[]	*
*C:	*	*C:	*	*C:	*
*M4/4	*	*M4/4	*	*M4/4	*
*met(c)	*	*met(c)	*	*met(c)	*
*met(c)	*	*	*	*	*
=1-	=1-	=1-	=1-	=1-	=1-
!LO:TX:a:t=2dum	!	!	!	!	!
!LO:TX:t=P:problem=kreska pseudotaktowa	!	!	!	!	!
*	*	*met(c)	*	*	*
!	!	!LO:TX:a:t=Aliud eiuſdem Authoris B. Czechowicz	!	!	!
*	*	*	*	*met(c)	*
!	!	!	!	!LO:TX:t=2	!
1C	Sub	4r	.	2r	.
.	.	4G	Sub	.	.
.	.	4e	tu-	4r	.
.	.	8e	-um	4g/	Sub
.	.	8d	prae-	.	.
=2	=2-	=2-	=2-	=2-	=2-
1C	tu-	4.c	-ſi-	4ee	tu-
.	.	.	.	8eeL	-um
.	.	8c	-di-	8ddJ	prae-
.	.	4G	-um	4.cc	-ſi-
.	.	4r	.	.	.
.	.	.	.	8cc	-di-
=3-	=3-	=3-	=3-	=3-	=3-
1E,	-um	4r	.	4g/	-um
.	.	4c	Con-	4ee	Con-
.	.	8c	-fu-	8eeL	.
.	.	8B	.	8dd	.
.	.	8AL	.	8cc	.
.	.	8GJ	.	8bJ	.
=4-	=4-	=4-	=4-	=4-	=4-
!	!	!	!	!LO:TX:a:t=Aliud eiuſdem Authoris B. Czechowi	!
1F	prae-	4.F	.	4.a	-fu-
.	.	8F	-gi-	8a	-gi-
.	.	4F	-mus	4a	-mus
!	!	!	!	!LO:TX:t=P:problem=kreska pseudotaktowa	!
.	.	4r	.	4r	.
=5-	=5-	=5-	=5-	=5	=5-
1G	-ſi-	4r	.	4g	Sub
.	.	4G	Sub	4b	tu-
.	.	4B	tu-	8b	-um
.	.	.	.	8cc	prae-
.	.	8B	-um	8dd	-ſi-
.	.	8c	prae-	8dd	-di-
=6-	=6-	=6-	=6-	=6-	=6-
!	!	!	!	!LO:TX:t=P:problem=2\right&colon; global	!
1F	-di-	4.d	-ſi-	2.a	-um
.	.	8d	-di-	.	.
.	.	2A/	-um	.	.
.	.	.	.	4r	.
=7-	=7-	=7-	=7-	=7-	=7-
1E,	-um	2r	.	4ee	con-
.	.	.	.	8eeL	-fu-
.	.	.	.	8dd	.
.	.	4r	.	8cc	.
.	.	.	.	8bJ	.
.	.	4c	con-	4.a	.
!	!	!LO:LB:g=original	!	!	!
=8-	=8-	=8-	=8-	=8-	=8-
1F	Con-	8cL	-fu-	.	.
.	.	8d	.	8aJ	gi-
.	.	8c	.	4a	-m(us)
.	.	8BJ	.	.	.
.	.	4.A	.	2r	.
.	.	8A	-gi-	.	.
!	!	!	!	!LO:LB:g=original	!
=9-	=9-	=9-	=9-	=9-	=9-
!	!	!LO:TX:t=P:problem=2\right&colon; global	!	!	!
1G	.	2B	-mus	4r	.
.	.	.	.	4g	Sub
.	.	2r	.	4b	tu-
.	.	.	.	8b	-um
.	.	.	.	8dd	prae-
=10-	=10-	=10-	=10-	=10-	=10-
1A	.	2r	.	2.cc	-ſi-
.	.	4r	.	.	.
.	.	4A	Sub	4b	-di-
=11-	=11-	=11-	=11-	=11-	=11-
1G	-fu-	4B	tu-	4b	-um
*	*	*	*	*	*ij
.	.	8B	-um	4g	Sub
.	.	8c	prae-	.	.
.	.	4.d	-ſi-	4b	tu-
.	.	.	.	8b	-um
.	.	8d	-di-	8cc	prae-
=12-	=12-	=12-	=12-	=12-	=12-
1F	.	2A/	-um	4.dd	-ſi-
.	.	.	.	8dd	-di-
.	.	4r	.	4a	-um
*	*	*	*	*	*Xij
.	.	4c	con-	4r	.
=13-	=13-	=13-	=13-	=13-	=13-
1G	-gi-	8dL	-fu-	4r	.
.	.	8c	.	.	.
.	.	8B	.	4dd	con-
.	.	8AJ	.	.	.
.	.	4.B	.	8ddL	-fu-
.	.	.	.	8cc	.
.	.	.	.	8b	.
.	.	8B	gi-	8aJ	.
=14-	=14-	=14-	=14-	=14-	=14-
1G,	-mus	2G	-mus	4.b	.
.	.	.	.	8b	gi-
.	.	2r	.	4g	-mus
*	*	*	*	*	*ij
.	.	.	.	4dd	con-
=15-	=15-	=15-	=15-	=15-	=15-
1G	San-	4r	.	8ddL	-fu-
.	.	.	.	8cc	.
*	*	*	*ij	*	*
.	.	4d	con-	8b	.
.	.	.	.	8aJ	.
.	.	8dL	-fu-	4.b	.
.	.	8c	.	.	.
.	.	8B	.	.	.
.	.	8AJ	.	8b	gi-
=16-	=16-	=16-	=16-	=16-	=16-
1G	-cta	4.B	.	4g/	-mus
*	*	*	*	*	*Xij
.	.	.	.	2r	.
.	.	8B	gi-	.	.
.	.	4G	-mus	.	.
*	*	*	*Xij	*	*
.	.	4r	.	8bL	Con-
.	.	.	.	8ccJ	.
!LO:LB:g=original	!	!	!	!LO:PB:g=original	!
=17-	=17-	=17-	=17-	=17-	=17-
1F	.	(8FL	San-	8ff	-fu-
.	.	8GJ)	.	8ff	-gi-
.	.	(8A/L	-cta	4a	-mus
.	.	8BJ)	.	.	.
!	!	!LO:LB:g=original	!	!	!
.	.	[8c	De-	8aL	Con-
.	.	8c]	.	8b	.
!	!	!LO:TX:t=P:problem=kreska pseudotaktowa	!	!	!
.	.	4c	-i	8cc	.
.	.	.	.	8ddJ	.
=18-	=18-	=18	=18-	=18-	=18-
1E	.	8c	Ge-	8ee	-fu-
.	.	8dL	.	8ee	-gi-
.	.	8e	.	4ee,	-mus
.	.	8fJ	.	.	.
*	*	*	*	*	*ij
.	.	4g	.	4ee	Con-
.	.	4g	ni-	8b	.
.	.	.	.	8cc	.
=19-	=19-	=19-	=19-	=19-	=19-
1D,	.	4f	-trix	4.dd	fu-
.	.	4.f	Ge-	.	.
.	.	.	.	8dd	-gi-
.	.	.	.	2a	-mus
*	*	*	*	*	*Xij
.	.	8fL	.	.	.
.	.	8e	.	.	.
.	.	8dJ	.	.	.
=20-	=20-	=20-	=20-	=20-	=20-
1E	De-	4.c	.	2r	.
.	.	8c	-ni-	.	.
.	.	2G	-trix	4r	.
.	.	.	.	4.cc	San-
=21-	=21-	=21-	=21-	=21-	=21-
1D,	-i	2r	.	.	.
.	.	.	.	8cc	-cta
.	.	.	.	8b	De-
.	.	.	.	8a	-i
.	.	2d	San-	4.b	Ge-
.	.	.	.	8b	-ni-
=22-	=22-	=22-	=22-	=22-	=22-
1C	Ge-	2e	-cta	4cc	-trix
*	*	*	*	*	*ij
.	.	.	.	4.gg	San-
.	.	4e	De-	.	.
.	.	.	.	8ff	-cta
.	.	8dL	-i	8ff	De-
.	.	8cJ	.	8ee	-i
=23-	=23-	=23-	=23-	=23-	=23-
1BB	-ni-	4.d	Ge-	4.dd	Ge-
.	.	8d	-ni-	8dd	-ni-
.	.	2B	-trix	2dd	-trix
*	*	*	*	*	*Xij
=24-	=24-	=24-	=24-	=24-	=24-
1C,	-trix	4G	Ge-	1r	.
.	.	4.g	-ni-	.	.
.	.	8fL	.	.	.
.	.	8e	.	.	.
.	.	8dJ	.	.	.
=25-	=25-	=25-	=25-	=25-	=25-
1E	Noſ-	4c	-trix	2r	.
.	.	4.e	noſ-	.	.
.	.	.	.	4r	.
.	.	8d	-tras	.	.
.	.	8c	de-	4cc	no-
.	.	8B	-pre-	.	.
!	!	!	!	!LO:LB:g=original	!
=26-	=26-	=26-	=26-	=26-	=26-
1F	-tras	4.A/	-ca-	(8ccL	-stras
.	.	.	.	8dd)J	.
.	.	.	.	8cc	de-
.	.	8A/	-ti-	8b	-pre-
!	!	!LO:LB:g=original	!	!	!
.	.	2A/	-o-	4a	-ca-
.	.	.	.	4cc	-ti-
=27-	=27-	=27-	=27-	=27-	=27-
1G	de-	1G	-nes	4.b	-o-
.	.	.	.	8a	.
.	.	.	.	8bL	.
.	.	.	.	8a	.
.	.	.	.	8b	.
.	.	.	.	8ccJ	.
=28-	=28-	=28-	=28-	=28-	=28-
1F	-pre-	2r	.	4a	-nes
.	.	.	.	4.ff	ne
.	.	4r	.	.	.
.	.	.	.	8ee	.
.	.	4.d	ne	8ddL	de-
.	.	.	.	8ccJ	.
=29-	=29-	=29-	=29-	=29-	=29-
1G	-ca-	.	.	8bL	.
.	.	8B	.	8a	.
.	.	8cL	de-	8b	.
.	.	8AJ	.	8ccJ	.
.	.	4.B	-ſpi-	4.dd	-spi-
.	.	8B	-ci-	8dd	-ci-
=30-	=30-	=30-	=30-	=30-	=30-
1A	.	1A	-as	2cc	-as
.	.	.	.	4r	.
.	.	.	.	8cc	noſ-
.	.	.	.	8cc	-tras
=31-	=31-	=31-	=31-	=31-	=31-
1G	-ti-	4r	.	4.dd	de-
.	.	8B	noſ-	.	.
.	.	8B	-tras	8cc	-pre-
.	.	4.d	de-	4.b	-ca-
.	.	8c	-pre-	8a	-ti-
=32-	=32-	=32-	=32-	=32-	=32-
1G	-o-	4.B	-ca-	4g/	-o-
.	.	.	.	4g/	-nes
.	.	8A	-ti-	.	.
.	.	4G	-o-	4.dd	de-
.	.	4G	-nes	.	.
.	.	.	.	8cc	-pre-
!	!	!	!	!LO:LB:g=original	!
=33-	=33-	=33-	=33-	=33-	=33-
1G,	-nes	4r	.	4.b	-ca-
.	.	4.B	ne	.	.
.	.	.	.	8a	-ti-
.	.	.	.	4g/	-o-
.	.	8c	.	.	.
.	.	8dL	de-	4g/	-nes
.	.	8BJ	.	.	.
=34-	=34-	=34-	=34-	=34-	=34-
1A	ne	4.c	-ſpi-	2r	.
.	.	8c	-ci-	.	.
.	.	2A/	-as	4r	.
.	.	.	.	2cc	ne
=35-	=35-	=35-	=35-	=35-	=35-
1G	de-	1r	.	.	.
.	.	.	.	8bL	de-
.	.	.	.	8aJ	.
.	.	.	.	4.b	ſpi-
.	.	.	.	8b	-ci-
!LO:LB:g=original	!	!	!	!	!
=36-	=36-	=36-	=36-	=36-	=36-
1F	.	4.A	ne	2cc	-as
.	.	8B	.	.	.
.	.	4c	.	2r	.
.	.	2A	de-	.	.
=37-	=37-	=37-	=37-	=37-	=37-
1D	-spi-	.	.	1r	.
.	.	2d	.	.	.
.	.	2c	.	.	.
=38-	=38-	=38-	=38-	=38-	=38-
1E	-ci-	.	.	2.e	ne-
.	.	8BL	.	.	.
.	.	8AJ	.	.	.
!	!	!LO:LB:g=original	!	!	!
.	.	4.B	-spi-	.	.
.	.	.	.	4e	-de-
.	.	8B	-ci-	.	.
=39-	=39-	=39-	=39-	=39-	=39-
1F,	-as	2A	-as	8aL	-spi-
.	.	.	.	8bJ	.
.	.	.	.	2cc	.
.	.	2r	.	.	.
.	.	.	.	8bL	.
.	.	.	.	8aJ	.
=40-	=40-	=40-	=40-	=40-	=40-
1G	in	2r	.	2.b-X	.
.	.	4.G	in	.	.
.	.	.	.	4b-	-ci-
.	.	8G	ne-	.	.
=41-	=41-	=41-	=41-	=41-	=41-
1F	Ne-	4.A	-ceſ-	2a	-as
.	.	8A	-si-	.	.
.	.	2.d	-ta-	2r	.
=42-	=42-	=42-	=42-	=42-	=42-
1E	.	.	.	2r	.
.	.	8cL	.	.	.
.	.	8BJ	.	.	.
.	.	4.c#X	.	4.ee	in
.	.	8c#	ti-	8ee	ne-
=43-	=43-	=43-	=43-	=43-	=43-
1D	.	[2d	-bus	4.a	ceſ-
.	.	.	.	8a	-si-
.	.	4d]	.	4.dd	-ta-
.	.	8A	ne	.	.
.	.	8B	de-	8dd	-ti-
=44-	=44-	=44-	=44-	=44-	=44-
1E	-ceſ-	4.c	-ſpi-	2g/	-bus
.	.	8c	-ci-	.	.
!	!	!	!	!LO:LB:g=original	!
!	!	!LO:TX:t=P:problem=kreska pseudotaktowa	!	!	!
.	.	2G	-as	2.cc	no-
=45-	=45-	=45	=45-	=45-	=45-
1D	-si-	2r	.	.	.
.	.	.	.	8bL	.
.	.	.	.	8aJ	.
.	.	4.d	in	2b	.
.	.	8d	ne-	.	.
=46-	=46-	=46-	=46-	=46-	=46-
1C	-ta-	(8e	-ceſ-	4cc	ſtris
.	.	8d)	-si-	.	.
.	.	[4c	-ta-	4.ee	in
.	.	8cL]	.	.	.
.	.	8B	.	8dd	ne-
.	.	8A	.	8ee	-ceſ-
.	.	8GJ	.	8cc	-si-
=47-	=47-	=47-	=47-	=47-	=47-
1BB	-ti-	4.B	.	4.dd	-ta-
.	.	8B	ti-	8dd	-ti-
.	.	2d	-bus	2g/	-bus
!	!	!LO:LB:g=original	!	!	!
=48-	=48-	=48-	=48-	=48-	=48-
1C,	-bus	4G	ne	1r	.
.	.	(4.c	de-	.	.
.	.	8d)	.	.	.
.	.	8c	-ſpi-	.	.
.	.	8B	-ci-	.	.
=49-	=49-	=49-	=49-	=49-	=49-
1D	-ſed	2A/	-as	4a	no-
.	.	.	.	8ddL	.
.	.	.	.	8eeJ	.
.	.	8r	.	4.ff	.
.	.	8A	Sed	.	.
.	.	8c	a	.	.
.	.	8d	pe-	16eeLL	.
.	.	.	.	16ffJJ	.
=50-	=50-	=50-	=50-	=50-	=50-
1C	à	4.e	-ri-	4gg	.
.	.	.	.	4ee	-ſtris
.	.	8d	-cu-	.	.
.	.	8e	-lis	2r	.
.	.	8cL	cun-	.	.
.	.	8d	.	.	.
.	.	8cJ	.	.	.
=51-	=51-	=51-	=51-	=51-	=51-
1D	pe-	4B	.	4r	.
.	.	4B	-ctis	4.dd	in
.	.	2r	.	.	.
.	.	.	.	8dd	ne-
.	.	.	.	8cc	-ceſ-
.	.	.	.	8b	-si-
=52-	=52-	=52-	=52-	=52-	=52-
1F	-ri-	4r	.	8aL	-ta-
.	.	.	.	8bJ	.
.	.	4A	li-	8cc	-ti-
.	.	.	.	8a	-bus
.	.	8AL	-be-	2.dd	no-
.	.	8BJ	.	.	.
.	.	8cL	-ra	.	.
.	.	8dJ	.	.	.
=53-	=53-	=53-	=53-	=53-	=53-
1E	-cu-	2e	.	.	.
.	.	.	.	8ccL	.
.	.	.	.	8bJ	.
!	!	!	!	!LO:TX:a:t=P:problem=# above	!
.	.	2E	nos	2cc#X	.
=54-	=54-	=54-	=54-	=54-	=54-
1D	-lis	4r	.	2dd	-ſtris
.	.	4.d	Sed	.	.
.	.	.	.	2r	.
.	.	8d	a	.	.
.	.	(8dL	pe-	.	.
.	.	8cJ)	.	.	.
!LO:LB:g=original	!	!	!	!LO:LB:g=original	!
=55-	=55-	=55-	=55-	=55-	=55-
1E	Cun-	4B	-ri-	4r	.
.	.	8c	-cu-	4.ee	Sed
.	.	8c	-lis	.	.
.	.	2B	cun-	.	.
.	.	.	.	8b	a
.	.	.	.	8eeL	pe-
.	.	.	.	8ddJ	.
=56-	=56-	=56-	=56-	=56-	=56-
1F	.	2A/	-ctis	4cc	-ri-
.	.	.	.	8cc	-cu-
.	.	.	.	8cc	-lis
!	!	!LO:TX:t=P:problem=kreska pseudotaktowa	!	!	!
.	.	2r	.	2dd	cun-
=57-	=57-	=57	=57-	=57-	=57-
!	!	!LO:LB:g=original	!	!	!
1G	.	4r	.	4g/	-ctis
.	.	4.d	Sed	2r	.
.	.	8A	a	.	.
.	.	8d	pe-	4.dd	Sed
.	.	8c	-ri-	.	.
=58-	=58-	=58-	=58-	=58-	=58-
1G,	-ctis	8B	-cu-	.	.
.	.	8G	-lis	8b	a
.	.	4B	cun-	8ddL	pe-
.	.	.	.	8ccJ	.
.	.	2G	-ctis	8b	-ri-
.	.	.	.	8g	-cu-
.	.	.	.	4b	-lis
=59-	=59-	=59-	=59-	=59-	=59-
1A	li-	4r	.	4a	cun-
.	.	4.c	li-	4.ee	-ctis
.	.	8c	-be-	8ee	li-
.	.	8B	-ra	8ddL	-be-
.	.	8A	nos	8ccJ	.
=60-	=60-	=60-	=60-	=60-	=60-
1G	-be-	8B	ſem-	8dd	-ra
.	.	8G	-per	8b	nos
*	*	*	*ij	*	*
.	.	4.B	li-	4.dd	ſem-
.	.	8B	-be-	8dd	-per
*	*	*	*	*	*ij
.	.	8A	-ra	8ccL	nos
.	.	8G\	nos	8bJ	.
=61-	=61-	=61-	=61-	=61-	=61-
1F	-ra	4A	ſem-	4cc	ſem-
.	.	4A	-per	4a	-per
*	*	*	*Xij	*	*Xij
.	.	4r	.	2r	.
.	.	2.d	li-	.	.
=62-	=62-	=62-	=62-	=62-	=62-
1E	nos	.	.	2r	.
.	.	(8cL	-be-	4r	.
.	.	8BJ)	.	.	.
.	.	2c	-ra	4.cc	li-
=63-	=63-	=63-	=63-	=63-	=63-
!	!	!LO:TX:t=P:problem=kreska pseudotaktowa	!	!	!
1F	ſem-	.	.	.	.
.	.	.	.	8dd	-be-
.	.	4A	nos	8cc	-ra
.	.	.	.	8bJ	nos
!	!	!	!	!LO:LB:g=original	!
.	.	4r	.	8aL	sem-
.	.	.	.	8aJ	-per
*	*	*	*	*	*ij
.	.	4r	.	4.dd	li-
=64-	=64-	=64-	=64-	=64-	=64-
1G	.	8d	li-	.	.
.	.	8c	-be-	8cc	-be-
!	!	!LO:PB:g=original	!	!	!
.	.	8B	-ra	8b	-ra
.	.	8A/	nos	8aJ	nos
.	.	4G	ſem-	4g/	sem-
!	!	!	!	!LO:TX:t=P:problem=kreska pseudotaktowa	!
.	.	4G	-per	4g/	-per
*	*	*	*	*	*Xij
=65-	=65-	=65-	=65-	=65	=65-
1F	.	4r	.	4r	.
.	.	4r	.	4.cc	Vir-
.	.	4.A	Vir-	.	.
.	.	.	.	8ddL	-go
.	.	.	.	8ee	glo-
.	.	8B	-go	8ffJ	-ri-
=66-	=66-	=66-	=66-	=66-	=66-
1E,	-per	8c	glo-	4gg	-o-
.	.	8d	-ri-	.	.
.	.	8e	-o-	4g/	-ſa
.	.	8f	-ſa	.	.
.	.	4.g	Vir-	2r	.
.	.	8c#XL	.	.	.
=67-	=67-	=67-	=67-	=67-	=67-
1D	Vir-	8dL	.	4r	.
.	.	8eJ	.	.	.
*	*	*	*	*	*ij
.	.	4d	-go	4.a	Vir-
.	.	4r	.	.	.
.	.	.	.	8a	-go
.	.	2r	.	8dd	glo-
.	.	.	.	8ee	-ri-
=68-	=68-	=68-	=68-	=68-	=68-
1D	-go	.	.	8ff	-o-
.	.	.	.	8aa,	-ſa
*	*	*	*	*	*Xij
.	.	4r	.	4ff	et
.	.	4A	Vir-	4ee	be-
.	.	4A	-go	8ddL	-ne-
.	.	.	.	8ccJ	.
=69-	=69-	=69-	=69-	=69-	=69-
1D	glo-	8d	glo-	4dd	-di-
.	.	8e	-ri-	.	.
.	.	8f	-o-	4a	-cta
.	.	8e	-sa	.	.
.	.	(4.d	et	2r	.
.	.	8e)	.	.	.
=70-	=70-	=70-	=70-	=70-	=70-
1C	-ri-	8f	be-	4r	.
.	.	8d	-ne-	.	.
.	.	4e	-di-	4.gg	Vir-
.	.	4e	-cta	.	.
.	.	.	.	8gg	-go
!	!	!LO:LB:g=original	!	!	!
!	!	!LO:N:vis=2	!	!	!
.	.	4r	.	8ff	glo-
.	.	.	.	8ee	-ri-
=71-	=71-	=71-	=71-	=71-	=71-
1D	-o-	4r	.	4ff	-o-
.	.	2f	et	4dd	-sa
.	.	.	.	8r	.
.	.	.	.	8dd	et
.	.	8e	be-	8cc	be-
.	.	8d	-ne-	8b	-ne-
=72-	=72-	=72-	=72-	=72-	=72-
1F	-ſa	4c	-di-	4a	-di-
.	.	4c	-cta	4a	-cta
!	!	!	!	!LO:LB:g=original	!
.	.	2r	.	4r	.
.	.	.	.	4a	et
!LO:LB:g=original	!	!	!	!	!
=73-	=73-	=73-	=73-	=73-	=73-
*	*	*	*ij	*	*
1D	et	2A/	et	8aL	be-
.	.	.	.	8g	.
.	.	.	.	8f	-ne-
.	.	.	.	8aJ	.
.	.	1d	be-	4d	-di-
.	.	.	.	4d	-cta
=74-	=74-	=74-	=74-	=74-	=74-
1E	be-	.	.	4r	.
.	.	.	.	4.gg	Vir-
.	.	1c	-ne-	.	.
.	.	.	.	8ff	-go
.	.	.	.	8gg	glo-
.	.	.	.	8aa	-ri-
=75-	=75-	=75-	=75-	=75-	=75-
1D	-ne-	.	.	8ffL	-o-
.	.	.	.	8eeJ	.
.	.	.	.	4.dd,	-sa
.	.	2B	-di-	.	.
.	.	.	.	8ee	et
.	.	.	.	8ff	be-
.	.	.	.	8gg	-ne-
=76-	=76-	=76-	=76-	=76-	=76-
1C	-di-	4c	-cta	8ee	-di-
*	*	*	*Xij	*	*
.	.	.	.	8ee,	-cta
.	.	4r	.	2ee	et
.	.	2r	.	.	.
.	.	.	.	8cc	be-
.	.	.	.	8dd	-ne-
=77-	=77-	=77-	=77-	=77-	=77-
!LO:N:vis=0	!	!	!	!	!
[0C	-cta	4r	.	8ee	-di-
.	.	.	.	8ee	-cta
.	.	2e	be-	2cc	et
.	.	8d	-ne-	8b	be-
.	.	8c	.	8a	-ne-
=78-	=78-	=78-	=78-	=78-	=78-
.	.	2c	-di-	1g	-di-
!	!	!LO:N:vis=2	!	!	!
.	.	[2c	-cta	.	.
=79-	=79-	=79-	=79-	=79-	=79-
1C]	.	1c]	.	1g;;	-cta
==	==	==	==	==	==
*-	*-	*-	*-	*-	*-
!!!system-decoration: [(s1,s2,s3)]
!!!RDF**kern: > = above
!!!RDF**kern: < = below
!!!ENC: Tomasz Grochalski
!!!END: 2021-06-28
